build/img/icon-audio-wave.svg

<svg width="123" height="87" fill="none" xmlns="http://www.w3.org/2000/svg"><path d="M60 0H44v87h16V0z" fill="#fff"/><path d="M2.8 41H0v4.5h2.8V41z" fill="url(#paint0_linear)"/><path d="M9.5 41H6.7v5h2.8v-5z" fill="url(#paint1_linear)"/><path d="M16.1 39.4h-2.8v8.3h2.8v-8.3z" fill="url(#paint2_linear)"/><path d="M22.7 37.7h-2.8v11.6h2.8V37.7z" fill="url(#paint3_linear)"/><path d="M29.4 29.5h-2.8v28.2h2.8V29.5z" fill="url(#paint4_linear)"/><path d="M36 20.6h-2.8v46H36v-46z" fill="url(#paint5_linear)"/><path d="M42.7 23.3h-2.8v41h2.8v-41z" fill="url(#paint6_linear)"/><path d="M63.1 20.6h-2.8v46h2.8v-46z" fill="url(#paint7_linear)"/><path d="M69.8 29.5H67v27.7h2.8V29.5z" fill="url(#paint8_linear)"/><path d="M76.4 35.5h-2.8v16h2.8v-16z" fill="url(#paint9_linear)"/><path d="M83.1 35.5h-2.8v16h2.8v-16z" fill="url(#paint10_linear)"/><path d="M96.3 37.7h-2.8v11.7h2.8V37.7z" fill="url(#paint11_linear)"/><path d="M103 39.4h-2.8v8.3h2.8v-8.3z" fill="url(#paint12_linear)"/><path d="M109.7 41h-2.8v5.1h2.8V41z" fill="url(#paint13_linear)"/><path d="M116.3 41h-2.8v5.1h2.8V41z" fill="url(#paint14_linear)"/><path d="M123 41h-2.8v4.6h2.8V41z" fill="url(#paint15_linear)"/><path d="M89.7 32.7h-2.8v21.6h2.8V32.7z" fill="url(#paint16_linear)"/><path d="M49.7 4h-2.8v79.2h2.8V4z" fill="url(#paint17_linear)"/><path d="M56.4 10.5h-2.8v65.8h2.8V10.5z" fill="url(#paint18_linear)"/><defs><linearGradient id="paint0_linear" x1="-15.584" y1="43.268" x2="133.132" y2="43.268" gradientUnits="userSpaceOnUse"><stop stop-color="#36C0C8"/><stop offset=".218" stop-color="#DB5836"/><stop offset=".44" stop-color="#335CA8"/><stop offset=".637" stop-color="#D32968"/><stop offset=".834" stop-color="#F9E75B"/><stop offset="1"/></linearGradient><linearGradient id="paint1_linear" x1="-15.584" y1="43.533" x2="133.132" y2="43.533" gradientUnits="userSpaceOnUse"><stop stop-color="#36C0C8"/><stop offset=".218" stop-color="#DB5836"/><stop offset=".44" stop-color="#335CA8"/><stop offset=".637" stop-color="#D32968"/><stop offset=".834" stop-color="#F9E75B"/><stop offset="1"/></linearGradient><linearGradient id="paint2_linear" x1="-15.584" y1="43.542" x2="133.132" y2="43.542" gradientUnits="userSpaceOnUse"><stop stop-color="#36C0C8"/><stop offset=".218" stop-color="#DB5836"/><stop offset=".44" stop-color="#335CA8"/><stop offset=".637" stop-color="#D32968"/><stop offset=".834" stop-color="#F9E75B"/><stop offset="1"/></linearGradient><linearGradient id="paint3_linear" x1="-15.584" y1="43.534" x2="133.132" y2="43.534" gradientUnits="userSpaceOnUse"><stop stop-color="#36C0C8"/><stop offset=".218" stop-color="#DB5836"/><stop offset=".44" stop-color="#335CA8"/><stop offset=".637" stop-color="#D32968"/><stop offset=".834" stop-color="#F9E75B"/><stop offset="1"/></linearGradient><linearGradient id="paint4_linear" x1="-15.584" y1="43.573" x2="133.132" y2="43.573" gradientUnits="userSpaceOnUse"><stop stop-color="#36C0C8"/><stop offset=".218" stop-color="#DB5836"/><stop offset=".44" stop-color="#335CA8"/><stop offset=".637" stop-color="#D32968"/><stop offset=".834" stop-color="#F9E75B"/><stop offset="1"/></linearGradient><linearGradient id="paint5_linear" x1="-15.584" y1="43.566" x2="133.132" y2="43.566" gradientUnits="userSpaceOnUse"><stop stop-color="#36C0C8"/><stop offset=".218" stop-color="#DB5836"/><stop offset=".44" stop-color="#335CA8"/><stop offset=".637" stop-color="#D32968"/><stop offset=".834" stop-color="#F9E75B"/><stop offset="1"/></linearGradient><linearGradient id="paint6_linear" x1="-15.584" y1="43.81" x2="133.132" y2="43.81" gradientUnits="userSpaceOnUse"><stop stop-color="#36C0C8"/><stop offset=".218" stop-color="#DB5836"/><stop offset=".44" stop-color="#335CA8"/><stop offset=".637" stop-color="#D32968"/><stop offset=".834" stop-color="#F9E75B"/><stop offset="1"/></linearGradient><linearGradient id="paint7_linear" x1="-15.584" y1="43.568" x2="133.132" y2="43.568" gradientUnits="userSpaceOnUse"><stop stop-color="#36C0C8"/><stop offset=".218" stop-color="#DB5836"/><stop offset=".44" stop-color="#335CA8"/><stop offset=".637" stop-color="#D32968"/><stop offset=".834" stop-color="#F9E75B"/><stop offset="1"/></linearGradient><linearGradient id="paint8_linear" x1="-15.584" y1="43.291" x2="133.132" y2="43.291" gradientUnits="userSpaceOnUse"><stop stop-color="#36C0C8"/><stop offset=".218" stop-color="#DB5836"/><stop offset=".44" stop-color="#335CA8"/><stop offset=".637" stop-color="#D32968"/><stop offset=".834" stop-color="#F9E75B"/><stop offset="1"/></linearGradient><linearGradient id="paint9_linear" x1="-15.584" y1="43.539" x2="133.132" y2="43.539" gradientUnits="userSpaceOnUse"><stop stop-color="#36C0C8"/><stop offset=".218" stop-color="#DB5836"/><stop offset=".44" stop-color="#335CA8"/><stop offset=".637" stop-color="#D32968"/><stop offset=".834" stop-color="#F9E75B"/><stop offset="1"/></linearGradient><linearGradient id="paint10_linear" x1="-15.583" y1="43.539" x2="133.132" y2="43.539" gradientUnits="userSpaceOnUse"><stop stop-color="#36C0C8"/><stop offset=".218" stop-color="#DB5836"/><stop offset=".44" stop-color="#335CA8"/><stop offset=".637" stop-color="#D32968"/><stop offset=".834" stop-color="#F9E75B"/><stop offset="1"/></linearGradient><linearGradient id="paint11_linear" x1="-15.584" y1="43.504" x2="133.132" y2="43.504" gradientUnits="userSpaceOnUse"><stop stop-color="#36C0C8"/><stop offset=".218" stop-color="#DB5836"/><stop offset=".44" stop-color="#335CA8"/><stop offset=".637" stop-color="#D32968"/><stop offset=".834" stop-color="#F9E75B"/><stop offset="1"/></linearGradient><linearGradient id="paint12_linear" x1="-15.584" y1="43.573" x2="133.132" y2="43.573" gradientUnits="userSpaceOnUse"><stop stop-color="#36C0C8"/><stop offset=".218" stop-color="#DB5836"/><stop offset=".44" stop-color="#335CA8"/><stop offset=".637" stop-color="#D32968"/><stop offset=".834" stop-color="#F9E75B"/><stop offset="1"/></linearGradient><linearGradient id="paint13_linear" x1="-15.583" y1="43.521" x2="133.132" y2="43.521" gradientUnits="userSpaceOnUse"><stop stop-color="#36C0C8"/><stop offset=".218" stop-color="#DB5836"/><stop offset=".44" stop-color="#335CA8"/><stop offset=".637" stop-color="#D32968"/><stop offset=".834" stop-color="#F9E75B"/><stop offset="1"/></linearGradient><linearGradient id="paint14_linear" x1="-15.584" y1="43.521" x2="133.132" y2="43.521" gradientUnits="userSpaceOnUse"><stop stop-color="#36C0C8"/><stop offset=".218" stop-color="#DB5836"/><stop offset=".44" stop-color="#335CA8"/><stop offset=".637" stop-color="#D32968"/><stop offset=".834" stop-color="#F9E75B"/><stop offset="1"/></linearGradient><linearGradient id="paint15_linear" x1="-15.584" y1="43.279" x2="133.132" y2="43.279" gradientUnits="userSpaceOnUse"><stop stop-color="#36C0C8"/><stop offset=".218" stop-color="#DB5836"/><stop offset=".44" stop-color="#335CA8"/><stop offset=".637" stop-color="#D32968"/><stop offset=".834" stop-color="#F9E75B"/><stop offset="1"/></linearGradient><linearGradient id="paint16_linear" x1="-15.583" y1="43.539" x2="133.132" y2="43.539" gradientUnits="userSpaceOnUse"><stop stop-color="#36C0C8"/><stop offset=".218" stop-color="#DB5836"/><stop offset=".44" stop-color="#335CA8"/><stop offset=".637" stop-color="#D32968"/><stop offset=".834" stop-color="#F9E75B"/><stop offset="1"/></linearGradient><linearGradient id="paint17_linear" x1="-15.584" y1="43.579" x2="133.132" y2="43.579" gradientUnits="userSpaceOnUse"><stop stop-color="#36C0C8"/><stop offset=".218" stop-color="#DB5836"/><stop offset=".44" stop-color="#335CA8"/><stop offset=".637" stop-color="#D32968"/><stop offset=".834" stop-color="#F9E75B"/><stop offset="1"/></linearGradient><linearGradient id="paint18_linear" x1="-15.584" y1="43.418" x2="133.132" y2="43.418" gradientUnits="userSpaceOnUse"><stop stop-color="#36C0C8"/><stop offset=".218" stop-color="#DB5836"/><stop offset=".44" stop-color="#335CA8"/><stop offset=".637" stop-color="#D32968"/><stop offset=".834" stop-color="#F9E75B"/><stop offset="1"/></linearGradient></defs></svg>

<svg width="123" height="87" viewBox="0 0 123 87" fill="none" xmlns="http://www.w3.org/2000/svg">
<path d="M60 0H44V87H60V0Z" fill="white"/>
<path d="M2.8 41H0V45.5H2.8V41Z" fill="url(#paint0_linear)"/>
<path d="M9.50001 41H6.70001V46H9.50001V41Z" fill="url(#paint1_linear)"/>
<path d="M16.1 39.4H13.3V47.7H16.1V39.4Z" fill="url(#paint2_linear)"/>
<path d="M22.7 37.7H19.9V49.2999H22.7V37.7Z" fill="url(#paint3_linear)"/>
<path d="M29.4 29.5H26.6V57.7H29.4V29.5Z" fill="url(#paint4_linear)"/>
<path d="M36 20.6H33.2V66.6H36V20.6Z" fill="url(#paint5_linear)"/>
<path d="M42.7 23.3H39.9V64.3H42.7V23.3Z" fill="url(#paint6_linear)"/>
<path d="M63.1 20.6H60.3V66.6H63.1V20.6Z" fill="url(#paint7_linear)"/>
<path d="M69.8 29.5H67V57.2H69.8V29.5Z" fill="url(#paint8_linear)"/>
<path d="M76.4 35.5H73.6V51.5H76.4V35.5Z" fill="url(#paint9_linear)"/>
<path d="M83.1 35.5H80.3V51.5H83.1V35.5Z" fill="url(#paint10_linear)"/>
<path d="M96.3 37.7H93.5V49.4H96.3V37.7Z" fill="url(#paint11_linear)"/>
<path d="M103 39.4H100.2V47.7H103V39.4Z" fill="url(#paint12_linear)"/>
<path d="M109.7 41H106.9V46.1H109.7V41Z" fill="url(#paint13_linear)"/>
<path d="M116.3 41H113.5V46.1H116.3V41Z" fill="url(#paint14_linear)"/>
<path d="M123 41H120.2V45.6H123V41Z" fill="url(#paint15_linear)"/>
<path d="M89.7 32.7H86.9V54.3H89.7V32.7Z" fill="url(#paint16_linear)"/>
<path d="M49.7 4H46.9V83.2H49.7V4Z" fill="url(#paint17_linear)"/>
<path d="M56.4 10.5H53.6V76.3H56.4V10.5Z" fill="url(#paint18_linear)"/>
<defs>
<linearGradient id="paint0_linear" x1="-15.5835" y1="43.2676" x2="133.132" y2="43.2676" gradientUnits="userSpaceOnUse">
<stop stop-color="#36C0C8"/>
<stop offset="0.2176" stop-color="#DB5836"/>
<stop offset="0.4404" stop-color="#335CA8"/>
<stop offset="0.6373" stop-color="#D32968"/>
<stop offset="0.8342" stop-color="#F9E75B"/>
<stop offset="1"/>
</linearGradient>
<linearGradient id="paint1_linear" x1="-15.5835" y1="43.5328" x2="133.132" y2="43.5328" gradientUnits="userSpaceOnUse">
<stop stop-color="#36C0C8"/>
<stop offset="0.2176" stop-color="#DB5836"/>
<stop offset="0.4404" stop-color="#335CA8"/>
<stop offset="0.6373" stop-color="#D32968"/>
<stop offset="0.8342" stop-color="#F9E75B"/>
<stop offset="1"/>
</linearGradient>
<linearGradient id="paint2_linear" x1="-15.5835" y1="43.5421" x2="133.132" y2="43.5421" gradientUnits="userSpaceOnUse">
<stop stop-color="#36C0C8"/>
<stop offset="0.2176" stop-color="#DB5836"/>
<stop offset="0.4404" stop-color="#335CA8"/>
<stop offset="0.6373" stop-color="#D32968"/>
<stop offset="0.8342" stop-color="#F9E75B"/>
<stop offset="1"/>
</linearGradient>
<linearGradient id="paint3_linear" x1="-15.5835" y1="43.5342" x2="133.132" y2="43.5342" gradientUnits="userSpaceOnUse">
<stop stop-color="#36C0C8"/>
<stop offset="0.2176" stop-color="#DB5836"/>
<stop offset="0.4404" stop-color="#335CA8"/>
<stop offset="0.6373" stop-color="#D32968"/>
<stop offset="0.8342" stop-color="#F9E75B"/>
<stop offset="1"/>
</linearGradient>
<linearGradient id="paint4_linear" x1="-15.5835" y1="43.5731" x2="133.132" y2="43.5731" gradientUnits="userSpaceOnUse">
<stop stop-color="#36C0C8"/>
<stop offset="0.2176" stop-color="#DB5836"/>
<stop offset="0.4404" stop-color="#335CA8"/>
<stop offset="0.6373" stop-color="#D32968"/>
<stop offset="0.8342" stop-color="#F9E75B"/>
<stop offset="1"/>
</linearGradient>
<linearGradient id="paint5_linear" x1="-15.5835" y1="43.5659" x2="133.132" y2="43.5659" gradientUnits="userSpaceOnUse">
<stop stop-color="#36C0C8"/>
<stop offset="0.2176" stop-color="#DB5836"/>
<stop offset="0.4404" stop-color="#335CA8"/>
<stop offset="0.6373" stop-color="#D32968"/>
<stop offset="0.8342" stop-color="#F9E75B"/>
<stop offset="1"/>
</linearGradient>
<linearGradient id="paint6_linear" x1="-15.5835" y1="43.8096" x2="133.132" y2="43.8096" gradientUnits="userSpaceOnUse">
<stop stop-color="#36C0C8"/>
<stop offset="0.2176" stop-color="#DB5836"/>
<stop offset="0.4404" stop-color="#335CA8"/>
<stop offset="0.6373" stop-color="#D32968"/>
<stop offset="0.8342" stop-color="#F9E75B"/>
<stop offset="1"/>
</linearGradient>
<linearGradient id="paint7_linear" x1="-15.5835" y1="43.5675" x2="133.132" y2="43.5675" gradientUnits="userSpaceOnUse">
<stop stop-color="#36C0C8"/>
<stop offset="0.2176" stop-color="#DB5836"/>
<stop offset="0.4404" stop-color="#335CA8"/>
<stop offset="0.6373" stop-color="#D32968"/>
<stop offset="0.8342" stop-color="#F9E75B"/>
<stop offset="1"/>
</linearGradient>
<linearGradient id="paint8_linear" x1="-15.5837" y1="43.2906" x2="133.132" y2="43.2906" gradientUnits="userSpaceOnUse">
<stop stop-color="#36C0C8"/>
<stop offset="0.2176" stop-color="#DB5836"/>
<stop offset="0.4404" stop-color="#335CA8"/>
<stop offset="0.6373" stop-color="#D32968"/>
<stop offset="0.8342" stop-color="#F9E75B"/>
<stop offset="1"/>
</linearGradient>
<linearGradient id="paint9_linear" x1="-15.5837" y1="43.5386" x2="133.132" y2="43.5386" gradientUnits="userSpaceOnUse">
<stop stop-color="#36C0C8"/>
<stop offset="0.2176" stop-color="#DB5836"/>
<stop offset="0.4404" stop-color="#335CA8"/>
<stop offset="0.6373" stop-color="#D32968"/>
<stop offset="0.8342" stop-color="#F9E75B"/>
<stop offset="1"/>
</linearGradient>
<linearGradient id="paint10_linear" x1="-15.5832" y1="43.5386" x2="133.132" y2="43.5386" gradientUnits="userSpaceOnUse">
<stop stop-color="#36C0C8"/>
<stop offset="0.2176" stop-color="#DB5836"/>
<stop offset="0.4404" stop-color="#335CA8"/>
<stop offset="0.6373" stop-color="#D32968"/>
<stop offset="0.8342" stop-color="#F9E75B"/>
<stop offset="1"/>
</linearGradient>
<linearGradient id="paint11_linear" x1="-15.5837" y1="43.5038" x2="133.132" y2="43.5038" gradientUnits="userSpaceOnUse">
<stop stop-color="#36C0C8"/>
<stop offset="0.2176" stop-color="#DB5836"/>
<stop offset="0.4404" stop-color="#335CA8"/>
<stop offset="0.6373" stop-color="#D32968"/>
<stop offset="0.8342" stop-color="#F9E75B"/>
<stop offset="1"/>
</linearGradient>
<linearGradient id="paint12_linear" x1="-15.5837" y1="43.5732" x2="133.132" y2="43.5732" gradientUnits="userSpaceOnUse">
<stop stop-color="#36C0C8"/>
<stop offset="0.2176" stop-color="#DB5836"/>
<stop offset="0.4404" stop-color="#335CA8"/>
<stop offset="0.6373" stop-color="#D32968"/>
<stop offset="0.8342" stop-color="#F9E75B"/>
<stop offset="1"/>
</linearGradient>
<linearGradient id="paint13_linear" x1="-15.5831" y1="43.5212" x2="133.132" y2="43.5212" gradientUnits="userSpaceOnUse">
<stop stop-color="#36C0C8"/>
<stop offset="0.2176" stop-color="#DB5836"/>
<stop offset="0.4404" stop-color="#335CA8"/>
<stop offset="0.6373" stop-color="#D32968"/>
<stop offset="0.8342" stop-color="#F9E75B"/>
<stop offset="1"/>
</linearGradient>
<linearGradient id="paint14_linear" x1="-15.5837" y1="43.5212" x2="133.132" y2="43.5212" gradientUnits="userSpaceOnUse">
<stop stop-color="#36C0C8"/>
<stop offset="0.2176" stop-color="#DB5836"/>
<stop offset="0.4404" stop-color="#335CA8"/>
<stop offset="0.6373" stop-color="#D32968"/>
<stop offset="0.8342" stop-color="#F9E75B"/>
<stop offset="1"/>
</linearGradient>
<linearGradient id="paint15_linear" x1="-15.5838" y1="43.2791" x2="133.132" y2="43.2791" gradientUnits="userSpaceOnUse">
<stop stop-color="#36C0C8"/>
<stop offset="0.2176" stop-color="#DB5836"/>
<stop offset="0.4404" stop-color="#335CA8"/>
<stop offset="0.6373" stop-color="#D32968"/>
<stop offset="0.8342" stop-color="#F9E75B"/>
<stop offset="1"/>
</linearGradient>
<linearGradient id="paint16_linear" x1="-15.5831" y1="43.5386" x2="133.132" y2="43.5386" gradientUnits="userSpaceOnUse">
<stop stop-color="#36C0C8"/>
<stop offset="0.2176" stop-color="#DB5836"/>
<stop offset="0.4404" stop-color="#335CA8"/>
<stop offset="0.6373" stop-color="#D32968"/>
<stop offset="0.8342" stop-color="#F9E75B"/>
<stop offset="1"/>
</linearGradient>
<linearGradient id="paint17_linear" x1="-15.5835" y1="43.5789" x2="133.132" y2="43.5789" gradientUnits="userSpaceOnUse">
<stop stop-color="#36C0C8"/>
<stop offset="0.2176" stop-color="#DB5836"/>
<stop offset="0.4404" stop-color="#335CA8"/>
<stop offset="0.6373" stop-color="#D32968"/>
<stop offset="0.8342" stop-color="#F9E75B"/>
<stop offset="1"/>
</linearGradient>
<linearGradient id="paint18_linear" x1="-15.5837" y1="43.4176" x2="133.132" y2="43.4176" gradientUnits="userSpaceOnUse">
<stop stop-color="#36C0C8"/>
<stop offset="0.2176" stop-color="#DB5836"/>
<stop offset="0.4404" stop-color="#335CA8"/>
<stop offset="0.6373" stop-color="#D32968"/>
<stop offset="0.8342" stop-color="#F9E75B"/>
<stop offset="1"/>
</linearGradient>
</defs>
</svg>
